X: 45
T:Royal Charlie. HS.45
M:6/8
Q:110
C:"Set of Quadrilles,No3.
S:Henry Stables MS,Cumbria,late19thC
R:Quadrille
O:Walthwaite,nr.Ambleside.
A:England
Z:vmp.Chris Partington
K:D
f/e/|d2B BAF|d2B BAF|d2d dfF|A3A2c|!
d2ef2g|a2ff2e|d2B BAF|B3-B2:|!
c|d2cd2e|f2gf2e|d2cd2e|f3F2c|!
d2cd2e|f2gf2e|d2B BAF|B3B2c|!
d2cd2e|f2gf2e|d2cd2e|f3F2c|!
d2ef2g|a2bf2e|d2B BAF|B3B||
